polaris-icons/icons/new-icons/ProductCostMajor.svg

<svg width="20" height="20" viewBox="0 0 20 20" fill="none" xmlns="http://www.w3.org/2000/svg">
<path d="M8.57473 4.64885C9.28162 3.91477 10.2568 3.5 11.2759 3.5H13.25C15.0449 3.5 16.5 4.95507 16.5 6.75V9.25C16.5 9.66421 16.1642 10 15.75 10C15.3358 10 15 9.66421 15 9.25V6.75C15 5.7835 14.2165 5 13.25 5H11.2759C10.6645 5 10.0793 5.24886 9.65521 5.68931L5.4016 10.1065C4.92912 10.5972 4.93646 11.3758 5.41812 11.8575L8.31603 14.7554C8.70135 15.1407 9.32425 15.1466 9.71678 14.7686L10.1673 14.3348C10.4656 14.0474 10.9404 14.0564 11.2277 14.3548C11.5151 14.6531 11.5061 15.1279 11.2077 15.4152L10.7572 15.8491C9.77593 16.794 8.21868 16.7793 7.25537 15.816L4.35746 12.9181C3.29782 11.8585 3.28166 10.1455 4.32112 9.06605L8.57473 4.64885Z" fill="#4A4A4A"/>
<path d="M14 7C14 7.55228 13.5523 8 13 8C12.4477 8 12 7.55228 12 7C12 6.44772 12.4477 6 13 6C13.5523 6 14 6.44772 14 7Z" fill="#4A4A4A"/>
<path d="M13.25 11.3567C12.5218 11.6141 12 12.3086 12 13.125C12 14.1605 12.8395 15 13.875 15H14.625C14.8321 15 15 15.1679 15 15.375C15 15.5821 14.8321 15.75 14.625 15.75H12.75C12.3358 15.75 12 16.0858 12 16.5C12 16.9142 12.3358 17.25 12.75 17.25H13.25V17.5C13.25 17.9142 13.5858 18.25 14 18.25C14.4142 18.25 14.75 17.9142 14.75 17.5V17.2459C15.7273 17.1816 16.5 16.3685 16.5 15.375C16.5 14.3395 15.6605 13.5 14.625 13.5H13.875C13.6679 13.5 13.5 13.3321 13.5 13.125C13.5 12.9179 13.6679 12.75 13.875 12.75H15.75C16.1642 12.75 16.5 12.4142 16.5 12C16.5 11.5858 16.1642 11.25 15.75 11.25H14.75V11C14.75 10.5858 14.4142 10.25 14 10.25C13.5858 10.25 13.25 10.5858 13.25 11V11.3567Z" fill="#4A4A4A"/>
</svg>

<svg viewBox="0 0 20 20" xmlns="http://www.w3.org/2000/svg"><path d="M8.575 4.649a3.75 3.75 0 0 1 2.7-1.149h1.975a3.25 3.25 0 0 1 3.25 3.25v2.5a.75.75 0 0 1-1.5 0v-2.5a1.75 1.75 0 0 0-1.75-1.75h-1.974a2.25 2.25 0 0 0-1.62.69l-4.254 4.417a1.25 1.25 0 0 0 .016 1.75l2.898 2.898a1 1 0 0 0 1.4.014l.451-.434a.75.75 0 1 1 1.04 1.08l-.45.434a2.5 2.5 0 0 1-3.502-.033l-2.898-2.898a2.75 2.75 0 0 1-.036-3.852l4.254-4.417Z" fill="#5C5F62"/><path d="M14 7a1 1 0 1 1-2 0 1 1 0 0 1 2 0Z" fill="#5C5F62"/><path d="M13.25 11.357a1.876 1.876 0 0 0 .625 3.643h.75a.375.375 0 0 1 0 .75h-1.875a.75.75 0 0 0 0 1.5h.5v.25a.75.75 0 0 0 1.5 0v-.254a1.875 1.875 0 0 0-.125-3.746h-.75a.375.375 0 0 1 0-.75h1.875a.75.75 0 0 0 0-1.5h-1v-.25a.75.75 0 0 0-1.5 0v.357Z" fill="#5C5F62"/></svg>
